X:16958
T:The Little Bag Of Spuds
R:Reel
S:Unknown
H:
N:See also C.R.. No.1
D:Taped @ Milltown
Z:Adrian Scahill
M:4/4
L:1/8
K:G
B2dB ceec|BddB ABGA|BddB cdef|gabg a2gd:||
gabg eaaf|gabg e2d2|gabg eaaf|gedB A2G2:||
